client/media/icons/_04_checkcircle.svg

<?xml version="1.0" encoding="UTF-8" standalone="no"?><!DOCTYPE svg PUBLIC "-//W3C//DTD SVG 1.1//EN" "http://www.w3.org/Graphics/SVG/1.1/DTD/svg11.dtd"><svg width="100%" height="100%" viewBox="0 0 48 48" version="1.1" xmlns="http://www.w3.org/2000/svg" xmlns:xlink="http://www.w3.org/1999/xlink" xml:space="preserve" xmlns:serif="http://www.serif.com/" style="fill-rule:evenodd;clip-rule:evenodd;stroke-linejoin:round;stroke-miterlimit:2;"><path d="M47.203,18.449c0.228,0.911 0.418,1.831 0.569,2.761c0.152,0.93 0.228,1.87 0.228,2.819c-0,3.339 -0.617,6.491 -1.85,9.451c-1.234,2.962 -2.933,5.514 -5.097,7.658c-2.163,2.146 -4.706,3.825 -7.629,5.04c-2.924,1.215 -6.074,1.822 -9.453,1.822c-3.339,-0 -6.491,-0.607 -9.451,-1.822c-2.962,-1.215 -5.514,-2.894 -7.658,-5.04c-2.146,-2.144 -3.825,-4.696 -5.04,-7.658c-1.215,-2.96 -1.822,-6.112 -1.822,-9.451c-0,-3.379 0.607,-6.529 1.822,-9.453c1.215,-2.923 2.894,-5.466 5.04,-7.629c2.144,-2.164 4.696,-3.863 7.658,-5.097c2.96,-1.233 6.112,-1.85 9.451,-1.85c2.127,-0 4.167,0.304 6.121,0.911c1.955,0.607 3.806,1.367 5.552,2.277c0.645,0.267 1.063,0.779 1.252,1.538c0.19,0.759 0.095,1.461 -0.284,2.107c-0.379,0.531 -0.901,0.891 -1.566,1.081c-0.664,0.191 -1.28,0.172 -1.85,-0.056c-1.329,-0.836 -2.771,-1.481 -4.328,-1.936c-1.556,-0.456 -3.188,-0.684 -4.897,-0.684c-5.313,-0 -9.774,1.794 -13.38,5.381c-3.607,3.588 -5.409,8.057 -5.409,13.41c-0,5.352 1.802,9.822 5.409,13.409c3.606,3.586 8.067,5.38 13.38,5.38c5.429,0 9.909,-1.812 13.438,-5.437c3.53,-3.625 5.295,-8.114 5.295,-13.466c0,-0.684 -0.046,-1.357 -0.141,-2.022c-0.096,-0.664 -0.219,-1.281 -0.371,-1.851c-0.076,-0.949 0.076,-1.698 0.456,-2.248c0.379,-0.551 0.853,-0.94 1.423,-1.168c0.569,-0.151 1.195,-0.066 1.879,0.257c0.683,0.323 1.101,0.845 1.253,1.566Zm-28.47,14.804l-6.377,-6.434c-0.494,-0.418 -0.74,-0.978 -0.74,-1.68c-0,-0.702 0.265,-1.319 0.797,-1.851c0.493,-0.456 1.091,-0.684 1.794,-0.684c0.702,0 1.319,0.228 1.85,0.684l4.441,4.556l22.092,-22.15c0.495,-0.456 1.092,-0.692 1.794,-0.712c0.702,-0.019 1.319,0.219 1.851,0.712c0.493,0.569 0.74,1.195 0.74,1.879c0,0.683 -0.247,1.29 -0.74,1.822l-23.915,23.858c-0.493,0.531 -1.11,0.797 -1.85,0.797c-0.741,-0 -1.319,-0.266 -1.737,-0.797Z" style="fill-rule:nonzero;"/></svg>

<?xml version="1.0" encoding="UTF-8" standalone="no"?>
<!DOCTYPE svg PUBLIC "-//W3C//DTD SVG 1.1//EN" "http://www.w3.org/Graphics/SVG/1.1/DTD/svg11.dtd">
<svg width="100%" height="100%" viewBox="0 0 40 40" version="1.1" xmlns="http://www.w3.org/2000/svg" xmlns:xlink="http://www.w3.org/1999/xlink" xml:space="preserve" xmlns:serif="http://www.serif.com/" style="fill-rule:evenodd;clip-rule:evenodd;stroke-linejoin:round;stroke-miterlimit:2;">
    <g transform="matrix(0.833333,0,0,0.833333,-5.18104e-15,-3.33067e-15)">
        <path d="M47.203,18.449C47.431,19.36 47.621,20.28 47.772,21.21C47.924,22.14 48,23.08 48,24.029C48,27.368 47.383,30.52 46.15,33.48C44.916,36.442 43.217,38.994 41.053,41.138C38.89,43.284 36.347,44.963 33.424,46.178C30.5,47.393 27.35,48 23.971,48C20.632,48 17.48,47.393 14.52,46.178C11.558,44.963 9.006,43.284 6.862,41.138C4.716,38.994 3.037,36.442 1.822,33.48C0.607,30.52 0,27.368 0,24.029C0,20.65 0.607,17.5 1.822,14.576C3.037,11.653 4.716,9.11 6.862,6.947C9.006,4.783 11.558,3.084 14.52,1.85C17.48,0.617 20.632,0 23.971,0C26.098,0 28.138,0.304 30.092,0.911C32.047,1.518 33.898,2.278 35.644,3.188C36.289,3.455 36.707,3.967 36.896,4.726C37.086,5.485 36.991,6.187 36.612,6.833C36.233,7.364 35.711,7.724 35.046,7.914C34.382,8.105 33.766,8.086 33.196,7.858C31.867,7.022 30.425,6.377 28.868,5.922C27.312,5.466 25.68,5.238 23.971,5.238C18.658,5.238 14.197,7.032 10.591,10.619C6.984,14.207 5.182,18.676 5.182,24.029C5.182,29.381 6.984,33.851 10.591,37.438C14.197,41.024 18.658,42.818 23.971,42.818C29.4,42.818 33.88,41.006 37.409,37.381C40.939,33.756 42.704,29.267 42.704,23.915C42.704,23.231 42.658,22.558 42.563,21.893C42.467,21.229 42.344,20.612 42.192,20.042C42.116,19.093 42.268,18.344 42.648,17.794C43.027,17.243 43.501,16.854 44.071,16.626C44.64,16.475 45.266,16.56 45.95,16.883C46.633,17.206 47.051,17.728 47.203,18.449ZM18.733,33.253L12.356,26.819C11.862,26.401 11.616,25.841 11.616,25.139C11.616,24.437 11.881,23.82 12.413,23.288C12.906,22.832 13.504,22.604 14.207,22.604C14.909,22.604 15.526,22.832 16.057,23.288L20.498,27.844L42.59,5.694C43.085,5.238 43.682,5.002 44.384,4.982C45.086,4.963 45.703,5.201 46.235,5.694C46.728,6.263 46.975,6.889 46.975,7.573C46.975,8.256 46.728,8.863 46.235,9.395L22.32,33.253C21.827,33.784 21.21,34.05 20.47,34.05C19.729,34.05 19.151,33.784 18.733,33.253Z" style="fill-rule:nonzero;"/>
    </g>
</svg>
